exported-svg/truck.svg

<svg height="24" viewBox="0 0 24 24" width="24" xmlns="http://www.w3.org/2000/svg"><path d="m21.2361065 17c.4750399.5307565.7638935 1.2316456.7638935 2 0 1.6568542-1.3431458 3-3 3s-3-1.3431458-3-3c0-.7683544.2888536-1.4692435.7638935-2h-.2638935-8.26389349c.47503992.5307565.76389349 1.2316456.76389349 2 0 1.6568542-1.34314575 3-3 3s-3-1.3431458-3-3c0-.7683544.28885357-1.4692435.76389349-2h-2.26389349c-.27614237 0-.5-.2238576-.5-.5v-13c0-.27614237.22385763-.5.5-.5h15c.2761424 0 .5.22385763.5.5v4.5h3.5c.1326082 0 .2597852.05267842.3535534.14644661l3 2.99999999c.0937682.0937682.1464466.2209452.1464466.3535534v5c0 .2761424-.2238576.5-.5.5zm-4.2361065-8v7h6v-4.2928932l-2.7071068-2.7071068zm-1-.5v-4.5h-14v12h14zm-10 12.5c1.1045695 0 2-.8954305 2-2s-.8954305-2-2-2-2 .8954305-2 2 .8954305 2 2 2zm13 0c1.1045695 0 2-.8954305 2-2s-.8954305-2-2-2-2 .8954305-2 2 .8954305 2 2 2z"/></svg>

<?xml version="1.0" encoding="UTF-8"?>
<svg width="24px" height="24px" viewBox="0 0 24 24" version="1.1" xmlns="http://www.w3.org/2000/svg" xmlns:xlink="http://www.w3.org/1999/xlink">
    <!-- Generator: Sketch 55.2 (78181) - https://sketchapp.com -->
    <title>truck</title>
    <desc>Created with Sketch.</desc>
    <g id="truck" stroke="none" stroke-width="1" fill="none" fill-rule="evenodd">
        <path d="M21.2361065,17 C21.7111464,17.5307565 22,18.2316456 22,19 C22,20.6568542 20.6568542,22 19,22 C17.3431458,22 16,20.6568542 16,19 C16,18.2316456 16.2888536,17.5307565 16.7638935,17 L16.5,17 L8.23610651,17 C8.71114643,17.5307565 9,18.2316456 9,19 C9,20.6568542 7.65685425,22 6,22 C4.34314575,22 3,20.6568542 3,19 C3,18.2316456 3.28885357,17.5307565 3.76389349,17 L1.5,17 C1.22385763,17 1,16.7761424 1,16.5 L1,3.5 C1,3.22385763 1.22385763,3 1.5,3 L16.5,3 C16.7761424,3 17,3.22385763 17,3.5 L17,8 L20.5,8 C20.6326082,8 20.7597852,8.05267842 20.8535534,8.14644661 L23.8535534,11.1464466 C23.9473216,11.2402148 24,11.3673918 24,11.5 L24,16.5 C24,16.7761424 23.7761424,17 23.5,17 L21.2361065,17 Z M17,9 L17,16 L23,16 L23,11.7071068 L20.2928932,9 L17,9 Z M16,8.5 L16,4 L2,4 L2,16 L16,16 L16,8.5 Z M6,21 C7.1045695,21 8,20.1045695 8,19 C8,17.8954305 7.1045695,17 6,17 C4.8954305,17 4,17.8954305 4,19 C4,20.1045695 4.8954305,21 6,21 Z M19,21 C20.1045695,21 21,20.1045695 21,19 C21,17.8954305 20.1045695,17 19,17 C17.8954305,17 17,17.8954305 17,19 C17,20.1045695 17.8954305,21 19,21 Z" id="Combined-Shape" fill="#000000" fill-rule="nonzero"></path>
    </g>
</svg>
